assets/images/react.svg

<svg width="24" height="24" viewBox="0 0 24 24" fill="none" xmlns="http://www.w3.org/2000/svg">
<path d="M21.5875 12.4507C21.4294 12.2899 21.2625 12.1287 21.0869 11.967C21.2095 11.8523 21.3282 11.7377 21.443 11.6232C23.6091 9.4581 24.5233 7.28678 23.6762 5.98138C22.8639 4.72979 20.4477 4.3568 17.4228 4.88004C17.1248 4.93189 16.8285 4.99039 16.5338 5.05553C16.4774 4.88253 16.4174 4.71053 16.3539 4.53953C15.3277 1.7885 13.67 -0.000947621 11.9758 3.76482e-07C10.3511 0.000660375 8.78092 1.6765 7.77924 4.26899C7.68069 4.52474 7.58952 4.78262 7.50573 5.04264C7.30872 4.99964 7.11088 4.95992 6.91222 4.92348C3.72071 4.34054 1.15014 4.72447 0.304686 6.03059C-0.506006 7.2831 0.341822 9.33037 2.3665 11.3971C2.5673 11.6016 2.77378 11.8015 2.98594 11.9968C2.73583 12.226 2.49899 12.4551 2.27824 12.6829C0.302636 14.7205 -0.496712 16.7343 0.312672 17.9813C1.14857 19.2695 3.68297 19.6906 6.76772 19.1506C7.01772 19.1065 7.26633 19.0569 7.51356 19.0018C7.60412 19.283 7.70347 19.5618 7.8116 19.8382C8.80887 22.3786 10.3703 24.0005 11.9892 24C13.661 23.9991 15.3371 22.2566 16.3525 19.6095C16.4327 19.4003 16.5086 19.1831 16.5806 18.9594C16.8999 19.0301 17.2214 19.0928 17.5448 19.1476C20.517 19.6478 22.8764 19.2544 23.6843 18.0064C24.5186 16.7173 23.6584 14.5552 21.5875 12.4507ZM1.3034 6.54219C1.82389 5.73819 3.92465 5.42452 6.68024 5.92779C6.85636 5.96001 7.03548 5.99601 7.21762 6.03579C6.94859 7.09451 6.75876 8.16793 6.64938 9.24899C5.6551 9.87125 4.70714 10.5501 3.81143 11.2813C3.61409 11.0997 3.42201 10.9138 3.23521 10.7234L3.23529 10.7235C1.5005 8.95266 0.814842 7.29695 1.3034 6.54219ZM6.54614 13.4159C5.85744 12.952 5.2174 12.4767 4.63648 11.9987C5.21699 11.5236 5.85744 11.05 6.54473 10.5873C6.52 11.0586 6.50776 11.5303 6.50802 12.0023C6.50838 12.4737 6.52109 12.9449 6.54614 13.4159ZM6.54531 18.1446C5.37617 18.3759 4.16916 18.4137 2.9846 18.2564C2.65987 18.2339 2.34378 18.1524 2.05585 18.0169C1.76793 17.8815 1.51429 17.6949 1.3106 17.4688C0.819509 16.712 1.46136 15.0952 3.15094 13.3525C3.36336 13.1341 3.58274 12.9214 3.80909 12.7144C4.70493 13.4495 5.65444 14.131 6.65139 14.7545C6.76227 15.8494 6.95433 16.9366 7.22631 18.0089C7.00061 18.0591 6.77361 18.1043 6.54531 18.1446ZM16.1241 8.49739C15.6716 8.24379 15.2136 7.99833 14.7501 7.76101C14.2939 7.52741 13.8322 7.30259 13.365 7.08653C14.1649 6.78734 14.9512 6.5318 15.7103 6.32356C15.8892 7.04152 16.0273 7.76705 16.1241 8.49739ZM8.86915 4.60224C9.72737 2.38088 10.9972 1.02561 11.9764 1.02524C13.0192 1.0248 14.3741 2.48715 15.2601 4.86239C15.3176 5.01723 15.372 5.17294 15.4233 5.32952C14.2593 5.65068 13.1205 6.04001 12.0144 6.49496C10.9128 6.03466 9.77762 5.64099 8.61649 5.31663C8.69411 5.0767 8.77833 4.83857 8.86915 4.60224ZM8.32909 6.31078C9.12087 6.53253 9.89958 6.78966 10.6623 7.08118C9.71726 7.51502 8.7967 7.98758 7.90056 8.49886C8.00882 7.73326 8.15288 6.99974 8.32909 6.31078ZM7.90253 15.5036C8.34942 15.7581 8.80285 16.0032 9.2628 16.2388C9.73199 16.4792 10.2074 16.7094 10.6891 16.9295C9.92059 17.2311 9.13519 17.4974 8.336 17.7274C8.15775 17.0289 8.01211 16.2825 7.90253 15.5036ZM15.2617 19.2782C14.9029 20.2947 14.3368 21.2438 13.5917 22.0781L13.5916 22.0781C13.4075 22.3171 13.1702 22.5199 12.8945 22.6741C12.6188 22.8283 12.3104 22.9305 11.9885 22.9745C11.0062 22.975 9.75251 21.6725 8.89965 19.5C8.79921 19.2431 8.70681 18.9839 8.62244 18.7224C9.78912 18.3876 10.9289 17.9828 12.0341 17.5108C13.1493 17.9687 14.2972 18.3609 15.4702 18.685C15.4062 18.8842 15.3367 19.0819 15.2617 19.2782ZM15.7504 17.6891C14.9826 17.4779 14.1848 17.2181 13.3734 16.9145C13.8308 16.7003 14.2916 16.4742 14.7557 16.236C15.2319 15.9914 15.6959 15.7406 16.1479 15.4837C16.0578 16.2244 15.9252 16.9605 15.7504 17.6891V17.6891ZM16.3524 11.9979C16.3534 12.7267 16.3278 13.4548 16.2756 14.1824C15.6111 14.5825 14.9094 14.9732 14.1794 15.3481C13.4525 15.7215 12.7322 16.0647 12.0256 16.3752C11.2821 16.0582 10.5529 15.7166 9.83799 15.3504C9.12714 14.9864 8.4326 14.5988 7.75436 14.1876C7.69237 13.4603 7.66114 12.7316 7.66067 12.0016L7.66083 12.0018C7.66026 11.2723 7.69081 10.5436 7.75248 9.8156C8.41688 9.41196 9.1134 9.02159 9.83354 8.65171C10.557 8.28008 11.2863 7.93841 12.0116 7.62874C12.746 7.94624 13.4671 8.2865 14.175 8.64952C14.8854 9.01271 15.5818 9.39618 16.2645 9.79993C16.3231 10.5315 16.3524 11.2641 16.3525 11.9979H16.3524ZM17.6429 5.88654C20.2346 5.43807 22.1887 5.73975 22.6782 6.494C23.1997 7.29754 22.4523 9.07219 20.5823 10.9416L20.5822 10.9417C20.4789 11.0448 20.3717 11.1484 20.2606 11.2524C19.3494 10.5196 18.3832 9.84292 17.3686 9.22695C17.2662 8.15772 17.0835 7.09577 16.8217 6.04825C17.1007 5.98717 17.3745 5.93326 17.6429 5.88654ZM17.4677 10.5482C18.152 10.9927 18.81 11.4684 19.4389 11.9736C18.8128 12.487 18.1569 12.971 17.474 13.4235C17.4949 12.9484 17.5052 12.473 17.5048 11.9974C17.5046 11.5142 17.4922 11.0311 17.4677 10.5482ZM22.6854 17.4947C22.1951 18.252 20.3007 18.5679 17.7589 18.1401C17.4676 18.0911 17.1687 18.0329 16.8622 17.9654C17.1177 16.9044 17.2924 15.8292 17.3849 14.7473C18.3977 14.1206 19.3609 13.4326 20.2676 12.6882C20.4263 12.8349 20.5772 12.9808 20.7203 13.1261V13.126C21.5311 13.9102 22.1727 14.8206 22.613 15.8115C22.7537 16.0727 22.8328 16.3569 22.8453 16.6464C22.8577 16.9359 22.8033 17.2246 22.6854 17.4947ZM10.79 10.1255C10.3773 10.3374 10.0446 10.6534 9.83385 11.0336C9.62312 11.4138 9.54383 11.841 9.60603 12.2612C9.66822 12.6815 9.86911 13.0759 10.1833 13.3945C10.4974 13.7132 10.9108 13.9419 11.371 14.0516C11.8312 14.1613 12.3177 14.1471 12.7689 14.0108C13.2201 13.8746 13.6157 13.6223 13.9057 13.286C14.1958 12.9498 14.3672 12.5445 14.3984 12.1215C14.4295 11.6986 14.319 11.2769 14.0807 10.9098C13.7612 10.4176 13.235 10.0585 12.6179 9.91143C12.0008 9.76434 11.3433 9.84134 10.79 10.1255L10.79 10.1255Z" fill="#626262"/>
</svg>

<svg width="24" height="24" viewBox="0 0 24 24" fill="none" xmlns="http://www.w3.org/2000/svg"><path d="M21.587 12.45a15.53 15.53 0 0 0-.5-.483c.122-.115.241-.23.356-.344 2.166-2.165 3.08-4.336 2.233-5.642-.812-1.251-3.228-1.624-6.253-1.101-.298.052-.595.11-.89.176a13.521 13.521 0 0 0-.18-.516C15.329 1.788 13.67 0 11.977 0 10.35 0 8.78 1.677 7.779 4.269c-.098.256-.19.514-.273.774a18.08 18.08 0 0 0-.594-.12C3.721 4.341 1.15 4.724.305 6.031c-.811 1.252.037 3.3 2.061 5.366.201.205.408.405.62.6-.25.229-.487.458-.708.686C.303 14.72-.497 16.734.313 17.98c.836 1.288 3.37 1.71 6.455 1.17.25-.044.498-.094.746-.15.09.282.19.56.298.837C8.809 22.378 10.37 24 11.989 24c1.672 0 3.348-1.743 4.363-4.39.08-.21.157-.427.229-.65.319.07.64.133.964.188 2.972.5 5.331.106 6.14-1.142.834-1.289-.027-3.45-2.098-5.555ZM1.303 6.543c.52-.804 2.622-1.117 5.377-.614.176.032.355.068.538.108a22.061 22.061 0 0 0-.569 3.213 27.852 27.852 0 0 0-2.838 2.032 15.164 15.164 0 0 1-.576-.558c-1.734-1.77-2.42-3.426-1.932-4.18Zm5.243 6.874A24.95 24.95 0 0 1 4.636 12a25.645 25.645 0 0 1 1.909-1.412 26.72 26.72 0 0 0 .001 2.829Zm0 4.729a10.95 10.95 0 0 1-3.561.111 2.607 2.607 0 0 1-.93-.24 2.343 2.343 0 0 1-.744-.547c-.491-.757.15-2.374 1.84-4.117.212-.218.432-.43.658-.638a27.298 27.298 0 0 0 2.842 2.04c.111 1.095.303 2.183.575 3.255-.225.05-.452.095-.68.136Zm9.578-9.648a41.448 41.448 0 0 0-2.759-1.41c.8-.3 1.586-.555 2.345-.763.18.718.317 1.443.414 2.173ZM8.87 4.602c.858-2.221 2.128-3.576 3.107-3.577 1.043 0 2.398 1.462 3.284 3.837.058.155.112.31.163.468-1.164.32-2.303.71-3.409 1.165a29.17 29.17 0 0 0-3.398-1.178c.078-.24.162-.478.253-.715Zm-.54 1.709c.792.222 1.57.479 2.333.77A35.23 35.23 0 0 0 7.901 8.5c.108-.766.252-1.5.428-2.188Zm-.426 9.193a34.902 34.902 0 0 0 2.786 1.426c-.768.301-1.554.567-2.353.797a20.675 20.675 0 0 1-.433-2.223Zm7.359 3.774a8.413 8.413 0 0 1-1.67 2.8 2.285 2.285 0 0 1-.697.596 2.571 2.571 0 0 1-.906.3c-.983.001-2.236-1.302-3.09-3.474-.1-.257-.192-.516-.277-.778a29.182 29.182 0 0 0 3.412-1.211 30.22 30.22 0 0 0 3.436 1.174c-.064.2-.133.397-.208.593Zm.488-1.589a28.025 28.025 0 0 1-2.377-.774c.458-.215.919-.44 1.383-.679.476-.245.94-.495 1.392-.752-.09.74-.223 1.476-.398 2.205Zm.602-5.691c.001.729-.024 1.457-.076 2.184-.665.4-1.367.791-2.097 1.166a39.51 39.51 0 0 1-2.153 1.027 34.33 34.33 0 0 1-4.272-2.187 25.65 25.65 0 0 1-.002-4.372 33.447 33.447 0 0 1 4.26-2.187c.734.317 1.455.658 2.163 1.02a38.8 38.8 0 0 1 2.09 1.15c.058.732.087 1.465.087 2.199Zm1.29-6.111c2.593-.449 4.547-.147 5.036.607.522.804-.226 2.578-2.096 4.448-.103.103-.21.206-.321.31a26.836 26.836 0 0 0-2.892-2.025 21.6 21.6 0 0 0-.547-3.179c.279-.06.553-.115.82-.161Zm-.174 4.661c.684.445 1.342.92 1.97 1.426-.625.513-1.281.997-1.964 1.45a32.348 32.348 0 0 0-.006-2.876Zm5.217 6.947c-.49.757-2.384 1.073-4.926.645-.291-.049-.59-.107-.897-.175.256-1.06.43-2.136.523-3.218a26.599 26.599 0 0 0 2.883-2.059c.158.147.31.293.452.438a8.606 8.606 0 0 1 1.893 2.686 1.912 1.912 0 0 1 .072 1.683Zm-11.895-7.37a2.268 2.268 0 0 0-.956.909c-.21.38-.29.807-.228 1.227.062.42.263.815.577 1.134.314.318.728.547 1.188.657.46.11.947.095 1.398-.041a2.42 2.42 0 0 0 1.137-.725c.29-.336.461-.742.492-1.165a1.955 1.955 0 0 0-.317-1.211c-.32-.492-.846-.851-1.463-.999a2.673 2.673 0 0 0-1.828.215Z" fill="#626262"/></svg>
